X:1
T:Robin couché
T:Clément Janequin
T:Source : Livre VII de chansons nouvelles à 4 ---Paris---N.du Chemin---1550. Editor : André Vierendeels (01/02/18). Notes : Original clefs : G2, C2, C3, F3 Original note values have been halved Editorial accidentals above the stave Dotted brackets indicate black notes
T:Robin couché
T:©
T:©
T:©
T:©
T:©
C:Clément Janequin
Z:©
%%score [ 1 2 [ 3 4 ] ]
L:1/8
Q:1/4=120
M:2/2
K:F
V:1 treble nm="Soprano" snm="S"
V:2 treble nm="Alto" snm="A"
V:3 treble-8 nm="Tenor 1" snm="T 1"
V:4 treble-8 nm="Tenor 2" snm="T 2"
V:1
 B2 BB c2 A2 | AA F3 E/D/ E2 | F2 d2 dddd | f2 f2 e2 d2- | dc c4 B2 |1 c8 :|2 c2 G2 AB c2 || %7
w: Ro- bin cou- ché à|mes- me ter- * * *|re, des- sus l'her- bet- te|pres s'a- my- *||e,|e, mais sot- te ne|
w: Il crainct se dict il|le ca- ter- * * *|re, a el- le le so-|leil en- * *|* * * nuy-|||
 BB A2 z4 | z2 f3 e d2 | c2 d2 A2 f2 | e2 d2 c2 c2 | dA d2 c2 A2 | A2 A2 AAAA | A2 G4 c2 | %14
w: se mon- stra,|ne se mon-|stra my- e, luy|di- sant en fa-|ce ri- an- te, luy|di- sant en fa- ce ri-|an- te, mectz|
w: |||||||
 ccGG BB A2 | G2 c2 ccGA | BB A4 c2 | cc c2 c2 cc | f4 e2 c2 | d2 e2 f2 e2 | c2 c2 f3 e/d/ | %21
w: toy sur moy, ie suis con- ten-|te, de te ser- vir pour|ma- the- ras, et|tu se- ras en lieu de|ten- te, car|um- bre'au so- leil|me fe- ras, _ _|
w: |||||||
 eeee c2 c2 | cc c2 c2 c2- | cc A2 A4 | z2 A2 B2 c2 | d2 c2 c2 B2 | c4 z2 c2 | cc c2 c2 c2- | %28
w: _ et tu se- ras, et|tu se- ras en lieu|_ de ten- te,|car um- bre'au|so- leil me fe-|ras, et|tu se- ras en lieu|
w: |||||||
 cc A2 A4 | z2 A2 B2 c2 | d2 c2 c2 B2 | c8 |] %32
w: _ de ten- te,|car um- bre'au|so- leil me fe-|ras.|
w: ||||
V:2
 G2 GG A3 F | FF D4 C2 | A2 BB BB B2 | BBAF c2 B2 | A4 G4 |1"^-natural" G8 :|2 E4 z2 E2 || %7
w: Ro- bin dor- moit à|mes- me ter- *|re, des- sus l'her- bet- te|sus l'her- bet- te pres s'a-|my- *|e,|e, mais|
w: Il crainct se dict il|le ca- ter- *|re, à el- le le so-|leil en- * * * *|* nuy|_||
 FGAA AG A2 | A2 z2 A2 AA | A2 A2 D2 A2 | A2 FF AAAA | BF A2 A2 F2 | E2 E2 FFFF | F2 E4 E2 | %14
w: sot- te ne se mon- stra my-|e, mais sot- te|ne se mon- stra|my- e, luy di- sant en fa-|ce ri- an- te, luy|di- sant en fa- ce ri-|an- te, mectz|
w: |||||||
 EEEE DD F2 | E2 E2 EEEE | DD C4 A2 | AAAA GG A2 | A2 z F G2 A2 | GGGG F2 G2 | A2 c2 AFAB | %21
w: toy sur moy, ie suis con- ten-|te, de te ser- vir pour|ma- the- ras, et|tu se- ras en lieu de ten-|te, car um- bre'au|so- leil me fe- ras, car|um- bre'au so- leil me fe-|
w: |||||||
 cccc A2 A2 | AA A2 G2 A2- | AG F2 E2 C2 | D2 E2 G4 | A2 F2 G4 | GEEE C2 A2 | AA A2 G2 A2- | %28
w: ras, et tu se- ras, et|tu se- ras en lieu|_ de ten- te, car|um- bre'au so-|leil me fe-|ras, et tu se- ras, et|tu se- ras en lieu|
w: |||||||
 AG F2 E2 C2 | D2 E2 G4 | A2 F2 G4 | G8 |] %32
w: _ de ten- te, car|um- bre'au so-|leil me fe-|ras.|
w: ||||
V:3
 z4 c2 cc | d3 A BB G2 | F4 z fff | fdff g3 f | e2 f2 d4 |1 c8 :|2 c2 c2 c2 G2 || z2 c2 de f2- | %8
w: Ro- bin cou-|ché à mes- me ter-|re, des- sus l'her-|bet- te pres s'a- my- *||e,|e, mais sot- te|ne se mon- stra|
w: Il crainct ce|dict il le ca- ter-|re, à el- le|le so- leil en- nuy- *|||||
 fe d2 c2 d2 | A2 f3 e d2 | c2 d2 e4 | z2 f2 e2 d2 | c2 c2 dA d2 | c4 c2 cc | AAcc G2 A2 | %15
w: _ _ my- * *|e, ne se mon-|stra my- e,|luy di- sant|en fa- ce ri- an-|te, mectz toy sur|moy ie suis con- ten- te,|
w: |||||||
 c2 cc AA c2 | G2 A4 f2 | ff f2 e2 f2- | fe d2 c2 A2 | B2 c2 d2 e2 | f2 ed/c/ d2 d2 | c2 A2 AAFf | %22
w: de te ser- vir pour ma-|the- ras, et|tu se- ras en lieu|_ de ten- te, car|um- bre'au so- leil|me _ _ _ _ fe-|ras, et tu se- ras, et|
w: |||||||
 ff f2 e2 f2- | ff d2 c2 A2 | B2 c2 d2 e2 | f2 ed/c/ d2 d2 | cccc A2 f2 | ff f2 e2 f2- | %28
w: tu se- ras en lieu|_ de ten- te, car|um- bre'au so- leil|me _ _ _ _ fe-|ras, et tu se- ras, et|tu se- ras en lieu|
w: ||||||
 fe d2 c2 A2 | B2 c2 d2 e2 | f2 ed/c/ d2 d2 | c8 |] %32
w: _ de ten- te, car|um- bre'au so- leil|me _ _ _ _ fe-|ras.|
w: ||||
V:4
 z4 F2 FF | D4 B,2 CC | D2 B,2 B2 BB | BBdd c2 G2 | A2 F2 G4 |1 C8 :|2 C4 z2 C2 || DE F3 E D2 | %8
w: Ro- bin dor-|moit à mes- me|ter- re, des- sus l'her-|bet- te sus l'her- bet- te|pres sa my-|e,|e, mais|sot- te ne se mon-|
w: Il crainct se|dict il la ca-|ter- re, à el- le|le so- leil en- nuy- *|||||
 A2 B2 A2 z2 | z2 D2 D2 D2 | A2 B2 A4 | z2 D2 A2 D2 | A2 A2 D2 D2 | F2 C4 z2 | z8 | z8 | z8 | z8 | %18
w: stra my- e,|ne se mon-|stra my- e,|luy di- sant|en fa- ce ri-|an- te,|||||
w: ||||||||||
 z8 | z8 | z8 | z4 F2 FF | F4 c2 F2- | FC D2 A4 | z2 A2 G2 c2 | F2 A2 G2 G2 | C4 F2 FF | %27
w: |||et tu se-|ras en lieu|_ de ten- te,|car um- bre'au|so- leil me fe-|ras, et tu se-|
w: |||||||||
"^-natural" F4 c2 F2- | FC D2 A4 | z2 A2 G2 c2 | F2 A2 G2 G2 | C8 |] %32
w: ras en lieu|_ de ten- te,|car um- bre'au|so- leil me fe-|ras.|
w: |||||

